X:434
T:Reel 434
M:4/4
K:Dmaj
L:1/8
 (3ABc |d2FG Aded|cA (3Bcd ecAc|d2FG AGED|EFGE FDFA|d2FG Adef|gfed cd (3efg |afge fded|cABc d2| (3ABc |d2fd adfd|cded  (3cBA Bc|defg afed|cBAB cd (3efg |abfa fdfd|cded  (3cBA ec|defg abag|fefe dcAc|
